icons/layout-grid-4-filled.svg

<svg viewBox="0 0 24 24"><path fill="currentColor" d="M2.4 3.6a1.2 1.2 0 0 1 1.2-1.2h2.4a1.2 1.2 0 0 1 1.2 1.2v2.4a1.2 1.2 0 0 1-1.2 1.2h-2.4a1.2 1.2 0 0 1-1.2-1.2zm7.2 0a1.2 1.2 0 0 1 1.2-1.2h2.4a1.2 1.2 0 0 1 1.2 1.2v2.4a1.2 1.2 0 0 1-1.2 1.2h-2.4a1.2 1.2 0 0 1-1.2-1.2zm7.2 0a1.2 1.2 0 0 1 1.2-1.2h2.4a1.2 1.2 0 0 1 1.2 1.2v2.4a1.2 1.2 0 0 1-1.2 1.2h-2.4a1.2 1.2 0 0 1-1.2-1.2zm-14.4 7.2a1.2 1.2 0 0 1 1.2-1.2h2.4a1.2 1.2 0 0 1 1.2 1.2v2.4a1.2 1.2 0 0 1-1.2 1.2h-2.4a1.2 1.2 0 0 1-1.2-1.2zm7.2 0a1.2 1.2 0 0 1 1.2-1.2h2.4a1.2 1.2 0 0 1 1.2 1.2v2.4a1.2 1.2 0 0 1-1.2 1.2h-2.4a1.2 1.2 0 0 1-1.2-1.2zm7.2 0a1.2 1.2 0 0 1 1.2-1.2h2.4a1.2 1.2 0 0 1 1.2 1.2v2.4a1.2 1.2 0 0 1-1.2 1.2h-2.4a1.2 1.2 0 0 1-1.2-1.2zm-14.4 7.2a1.2 1.2 0 0 1 1.2-1.2h2.4a1.2 1.2 0 0 1 1.2 1.2v2.4a1.2 1.2 0 0 1-1.2 1.2h-2.4a1.2 1.2 0 0 1-1.2-1.2zm7.2 0a1.2 1.2 0 0 1 1.2-1.2h2.4a1.2 1.2 0 0 1 1.2 1.2v2.4a1.2 1.2 0 0 1-1.2 1.2h-2.4a1.2 1.2 0 0 1-1.2-1.2zm7.2 0a1.2 1.2 0 0 1 1.2-1.2h2.4a1.2 1.2 0 0 1 1.2 1.2v2.4a1.2 1.2 0 0 1-1.2 1.2h-2.4a1.2 1.2 0 0 1-1.2-1.2z"/></svg>

<svg viewBox="0 0 24 24"><path fill="currentColor" d="M2.4 3.6a1.2 1.2 0 0 1 1.2-1.2H6a1.2 1.2 0 0 1 1.2 1.2V6A1.2 1.2 0 0 1 6 7.2H3.6A1.2 1.2 0 0 1 2.4 6zm7.2 0a1.2 1.2 0 0 1 1.2-1.2h2.4a1.2 1.2 0 0 1 1.2 1.2V6a1.2 1.2 0 0 1-1.2 1.2h-2.4A1.2 1.2 0 0 1 9.6 6zm7.2 0A1.2 1.2 0 0 1 18 2.4h2.4a1.2 1.2 0 0 1 1.2 1.2V6a1.2 1.2 0 0 1-1.2 1.2H18A1.2 1.2 0 0 1 16.8 6zM2.4 10.8a1.2 1.2 0 0 1 1.2-1.2H6a1.2 1.2 0 0 1 1.2 1.2v2.4A1.2 1.2 0 0 1 6 14.4H3.6a1.2 1.2 0 0 1-1.2-1.2zm7.2 0a1.2 1.2 0 0 1 1.2-1.2h2.4a1.2 1.2 0 0 1 1.2 1.2v2.4a1.2 1.2 0 0 1-1.2 1.2h-2.4a1.2 1.2 0 0 1-1.2-1.2zm7.2 0A1.2 1.2 0 0 1 18 9.6h2.4a1.2 1.2 0 0 1 1.2 1.2v2.4a1.2 1.2 0 0 1-1.2 1.2H18a1.2 1.2 0 0 1-1.2-1.2zM2.4 18a1.2 1.2 0 0 1 1.2-1.2H6A1.2 1.2 0 0 1 7.2 18v2.4A1.2 1.2 0 0 1 6 21.6H3.6a1.2 1.2 0 0 1-1.2-1.2zm7.2 0a1.2 1.2 0 0 1 1.2-1.2h2.4a1.2 1.2 0 0 1 1.2 1.2v2.4a1.2 1.2 0 0 1-1.2 1.2h-2.4a1.2 1.2 0 0 1-1.2-1.2zm7.2 0a1.2 1.2 0 0 1 1.2-1.2h2.4a1.2 1.2 0 0 1 1.2 1.2v2.4a1.2 1.2 0 0 1-1.2 1.2H18a1.2 1.2 0 0 1-1.2-1.2z"/></svg>
